packages/kaspersky-hexa-ui-icons/src/iconsSVGs/16/Heart.svg

<svg width="16" height="16" viewBox="0 0 16 16" fill="none" xmlns="http://www.w3.org/2000/svg">
<path fill-rule="evenodd" clip-rule="evenodd" d="M7.99981 2.99575C7.73536 2.73804 7.37463 2.44876 6.91838 2.22059C5.98217 1.7524 4.69521 1.56993 3.1422 2.32583C3.1247 2.33435 3.10758 2.34365 3.09091 2.3537C2.3565 2.79675 1.82594 3.32095 1.49078 3.98838C1.16017 4.64675 1.0498 5.38525 1.0498 6.20422C1.0498 7.21185 1.48806 8.19011 2.07215 9.05707C2.66142 9.93171 3.43992 10.7533 4.21387 11.4612C5.76253 12.8778 7.36721 13.9062 7.62126 14.0662C7.75159 14.1483 7.89989 14.1784 8.04186 14.162C8.15964 14.1616 8.27873 14.1291 8.38567 14.0616C8.66225 13.887 10.2653 12.856 11.8067 11.4421C12.577 10.7354 13.3504 9.91658 13.9354 9.04523C14.5154 8.18141 14.9498 7.20742 14.9498 6.20423C14.9498 5.38609 14.8416 4.65598 14.5111 4.00123C14.177 3.33927 13.6481 2.81808 12.9187 2.35987C12.8989 2.34743 12.8784 2.33606 12.8574 2.32583C11.2957 1.5657 10.0035 1.75462 9.06658 2.22796C8.61732 2.45493 8.26149 2.74074 7.99981 2.99575ZM6.33691 3.3833C5.74975 3.08967 4.89669 2.9264 3.73742 3.48202C3.17628 3.82503 2.85015 4.17823 2.65252 4.57177C2.44742 4.9802 2.3498 5.49326 2.3498 6.20422C2.3498 6.84396 2.63465 7.56534 3.15029 8.3307C3.66077 9.0884 4.35865 9.83183 5.0913 10.502C6.24103 11.5537 7.43067 12.3839 7.9998 12.7621C8.57233 12.3817 9.77225 11.5441 10.9279 10.4841C11.6569 9.8154 12.3497 9.07484 12.8561 8.32058C13.3676 7.5588 13.6498 6.84101 13.6498 6.20423C13.6498 5.49243 13.5539 4.98972 13.3506 4.58706C13.1544 4.19834 12.8277 3.84307 12.257 3.47953C11.0944 2.92406 10.2399 3.09167 9.65279 3.38828C9.02555 3.70518 8.64928 4.20064 8.56219 4.32537C8.41778 4.53221 8.17474 4.62926 7.94086 4.59737C7.74551 4.58949 7.55591 4.49393 7.4348 4.32163C7.34156 4.18898 6.96305 3.69643 6.33691 3.3833Z" fill="black"/>
</svg>

<svg xmlns="http://www.w3.org/2000/svg" width="16" height="16" fill="none" viewBox="0 0 16 16"><path fill="#000" fill-rule="evenodd" d="M7.9998 2.9958c-.2644-.2578-.6252-.547-1.0814-.7752-.9362-.4682-2.2232-.6507-3.7762.1052a.7.7 0 0 0-.0513.0279c-.7344.443-1.265.9673-1.6001 1.6347-.3306.6584-.441 1.3969-.441 2.2158 0 1.0077.4383 1.986 1.0224 2.8529.5892.8746 1.3677 1.6962 2.1417 2.4041 1.5486 1.4166 3.1533 2.445 3.4074 2.605a.647.647 0 0 0 .4206.0958.647.647 0 0 0 .3438-.1004c.2766-.1746 1.8796-1.2056 3.421-2.6195.7703-.7067 1.5437-1.5255 2.1287-2.3969.58-.8638 1.0144-1.8378 1.0144-2.841 0-.8181-.1082-1.5482-.4387-2.203-.3341-.662-.863-1.1831-1.5924-1.6413a.7.7 0 0 0-.0613-.034c-1.5617-.7602-2.8539-.5713-3.7908-.098-.4493.227-.8051.5128-1.0668.7679m-1.6629.3875c-.5872-.2936-1.4402-.4569-2.5995.0987-.5611.343-.8872.6962-1.0849 1.0898-.205.4084-.3027.9215-.3027 1.6324 0 .6398.2849 1.3611.8005 2.1265.5105.7577 1.2083 1.5011 1.941 2.1713 1.1497 1.0517 2.3394 1.8819 2.9085 2.2601.5725-.3804 1.7725-1.218 2.9281-2.278.729-.6687 1.4218-1.4093 1.9282-2.1635.5115-.7618.7937-1.4796.7937-2.1164 0-.7118-.0959-1.2145-.2992-1.6171-.1962-.3888-.5229-.744-1.0936-1.1076-1.1626-.5554-2.0171-.3878-2.6042-.0912-.6272.3169-1.0035.8123-1.0906.937a.65.65 0 0 1-.6213.272.649.649 0 0 1-.5061-.2757c-.0932-.1326-.4718-.6252-1.0979-.9383"/></svg>
